X:1
T:Title
%%score { ( 1 3 ) | ( 2 4 ) }
L:1/8
Q:1/4=100
M:6/8
K:A
V:1 treble nm="Grand Piano"
V:3 treble 
V:2 bass 
V:4 bass 
V:1
 [CE][CF][CG] [CA][CB][Cc] | F3 B3 | G2 G FGF | [CE]6 | [CE][CF][CG] AB[Cc] | [DF]3 [Fd]2 [Fd] | %6
w: J.~Lincoln~Hall * * * * *||||||
 [Ec]dc BcB | [CA]6 | .C3[K:bass] .E3 | ^D3 z3 | c3 .E3 | G3 z3 | d3 .F3 | F3 z3 | %14
w: ||||||||
 [EB]2 [EG] [^DF]2 [DB] | B6 | c3[K:bass] .E3 | ^D3 z3 | c3 .e3 | e3 z3 | d3 .c3 | B3 z3 | z3 .c3 | %23
w: |||||||||
 A6 |] %24
w: |
V:2
 [A,,A,][A,,A,][A,,A,] [A,,A,][A,,A,][A,,A,] | [D,A,D]3 [D,F,D]3 | %2
 [E,B,D]2 [E,B,D] [E,B,D][E,B,D][E,B,D] | [A,,A,]6 | [A,,A,][A,,A,][A,,A,] [A,,A,]2 [A,,A,] | %5
 [D,A,]3 [B,,B,]2 [B,,B,] | z F[E,A,E] DE[E,G,D] | [A,,A,]6 | [A,,E,A,]A,,A,, A,,A,,A,, | %9
 A,,A,,A,, A,,3 | [A,,E,A,][A,,E,][A,,E,] [A,,E,A,][A,,E,][A,,E,A,] | %11
 [E,B,D][E,B,][E,B,] [E,B,D]3 | [E,B,F][E,B,][E,B,] [E,B,D][E,B,][E,B,D] | %13
 [A,,A,][A,,A,][A,,A,] [A,,A,]3 | [B,,G,]2 [B,,B,] [B,,A,]2 [B,,A,] | [G,E]B,A, G,3 | %16
 [A,,E,A,]A,,A,, A,,A,,A,, | A,,A,,A,, A,,3 | [A,CE][A,C][A,C] [A,C=G][A,C][A,CG] | %19
 [D,D][D,D][D,D] [D,A,]3 | [B,,B,][B,,B,][B,,B,] [C,^A,][C,A,][C,A,] | %21
 [D,F,D][D,F,][D,F,] [^D,A,=C]3 | [E,A,C]2 [E,A,E] .[E,G,E]2 [E,G,D] | z E,^D, E,3 |] %24
V:3
 x6 | x6 | x6 | x6 | z3 .C3 | x6 | x6 | x6 | c-[E,A,Cc-][E,A,Cc][K:bass] [E,A,C][E,A,C][E,A,CE] | %9
 [F,A,=C][F,A,C][F,A,C] [E,A,^CE]3 | C[A,C][A,C] C[A,C][CA] | z DD F3 | z FF z DG | CCC [CE]3 | %14
 x6 | z GF E^D=D | C[K:bass][E,A,C][E,A,C] [E,A,C][E,A,C][E,A,CE] | %17
 [F,A,=C][F,A,C][F,A,C] [E,A,^CE]3 | z EE z =Gc | FFF [Fd]3 | FFF EE[Ec] | z DD F3 | E2 c z ^DB | %23
 [A,C]C=C ^C3 |] %24
V:4
 x6 | x6 | x6 | x6 | x6 | x6 | .[E,A,]3 .[E,G,]3 | x6 | x6 | x6 | x6 | x6 | x6 | x6 | x6 | E,6 | %16
 x6 | x6 | x6 | x6 | x6 | x6 | x6 | A,,6 |] %24

